X:186
%%etbk:tnset id:58,pos:5,rep:3x,ant:
%%etbk:tnset id:264,pos:1,rep:2x+Schluss (8T) - Stop,ant:
%%etbk:wsite http://www.thesession.org/tunes/display/591
%%etbk:pldat 2016-06-23T19:20,2016-06-21T15:42,2016-06-20T18:09,2016-06-16T18:59,2016-05-05T15:16,2016-05-04T15:26,2016-05-02T19:11,2016-03-11T15:52,2016-03-09T15:31,2016-03-07T18:59,2016-03-05T14:06,2016-02-16T17:37,2016-02-10T16:26,2015-11-03T15:32,2015-10-28T16:33,2015-10-26T18:53,2015-10-24T14:15,2015-10-20T17:37,2015-10-06T16:23,2015-06-26T17:37,2015-06-22T18:14,2015-03-13T18:34,2015-03-10T16:35,2015-03-05T18:13,2015-02-18T17:52,2015-02-11T17:16,2015-02-03T16:34,2014-11-05T18:12,2014-11-02T13:32,2014-10-24T18:40,2014-08-21T18:41,2014-08-20T18:15,2014-06-25T15:34,2014-06-11T16:29,2014-06-07T16:45,2014-03-06T18:46,2014-03-04T18:28,2014-03-01T16:02,2014-02-26T17:10,2014-02-18T16:32,2013-10-30T16:27,2013-10-28T18:45,2013-10-26T16:41,2013-10-18T16:32,2013-10-15T18:47,2013-10-10T19:46,2013-10-07T18:03
T: Pinch Of Snuff, The
Z: Piano Box Version by Martin Fleischmann
H: Created 2013-02-19 /  Last Modified 2013-02-19
M: 4/4
L: 1/8
R: reel
K: Dmaj
|: "D"!3!F2!1!DF !2!EFDE | !3!F{G}F!1!DF "A"!2!EF!4!GE | "D"!3!FFDF EF!1!D!3!F | "G"!1!GA!3!B!1!G "A"!2!EF!4!GE :|
|: "D"!1!D!2!F!4!AF !5!BFAF | !1!D!2!F!4!A!3!F "A"!2!EF!4!GE | "D"!1!D!2!F!4!AF !5!BF!4!A!2!F |1 "G"!1!GAB!1!G "A"!2!EF!4!GE :|2 "G"!1!GAB!1!G !2!E!3!F!1!G!2!A ||
K: Gmaj
|: "G"!3!B2!1!GB !2!ABGA | !3!B{c}B!1!GB "D"!2!AB!4!cA | "G"!3!BBGB AB!1!G!3!B | "C"!1!cd!3!e!1!c "D"!2!AB!4!cA :|
|: "G"!1!G!2!B!4!dB !5!eBdB | !1!G!2!B!4!d!3!B "D"!2!AB!4!cA | "G"!1!G!2!B!4!dB !5!eB!4!d!2!B | "C"!1!cde!1!c "D"!2!AB!4!cA :||
K: Amaj
|: "A"!3!c2!1!Ac !2!BcAB | !3!c{d}c!1!Ac "E"!2!Bc!4!dB | "A"!3!ccAc Bc!1!A!3!c | "D"!1!de!3!f!1!d "E"!2!Bc!4!dB :|
|: "A"!1!A!2!c!4!ec !5!fcec | !1!A!2!c!4!e!3!c "E"!2!Bc!4!dB | "A"!1!A!2!c!4!ec !5!fc!4!e!2!c |1 "D"!1!def!1!d "E"!2!Bc!4!dB :|2 "D"!1!def!1!d !2!B!3!c!1!d!2!e ||
K: Dmaj
|: "D"!3!f2!1!df !2!efde | !3!f{g}f!1!df "A"!2!ef!4!ge | "D"!3!ffdf ef!1!d!3!f | "G"!1!ga!3!b!1!g "A"!2!ef!4!ge :|
|: "D"!1!d!2!f!4!af !5!bfaf | !1!d!2!f!4!a!3!f "A"!2!ef!4!ge | "D"!1!d!2!f!4!af !5!bf!4!a!2!f | "G"!1!gab!1!g "A"!2!ef!4!ge :|
| "D"!3!f3e !1!d2!4!d!2!B | !1!A2!2!F{A}F !1!D!2!F!3!A!5!d  | "G"!2!B!1!G!2!B!4!d "C"!3!c3!4!d  | !2!e{g}eed efge |
"D"!3!f2{g}fe !1!d2!4!d!2!B | !1!A2!2!F{A}F !1!D!2!F!3!A!5!d  | "G"!2!B!1!G!2!B!4!d "C"!3!c3!1!G  | !2!E!1!D!2!C!1!D !2!EFGE  ||


